X: 941
T: Ask My Father.
B:O'Neill's 941
N:"collected by Ennis."
Z:Transcribed by Tom Keays (htkeays@mailbox.syr.edu)
Z:abc 1.6
M:6/8
R:Jig
L:1/8
K:D
A2 G | F2 D DED | A2 D DED | ABA B2 G | ABA A2 G |
F2 D DED | A2 D DED | G2 B A2 F | G3 :|
|| z2 g | f2 d efg | f2 d cAG | ABA B2 G | ABA B2 g |
f2 d efg | f2 d cAF | G2 B A2 F | G3 :|


